assets/azurefile/original.svg

<svg height="18" viewBox="0 0 18 18" width="18" xmlns="http://www.w3.org/2000/svg" xmlns:xlink="http://www.w3.org/1999/xlink"><linearGradient id="a" gradientUnits="userSpaceOnUse" x1="9" x2="9" y1="18"><stop offset="0" stop-color="#0078d4"/><stop offset=".817" stop-color="#5ea0ef"/></linearGradient><path d="m10.023.134h-7.661a.605.605 0 0 0 -.605.606v16.52a.605.605 0 0 0 .605.606h13.276a.605.605 0 0 0 .6-.606v-10.933a.605.605 0 0 0 -.6-.606h-4.406a.605.605 0 0 1 -.6-.605v-4.376a.6.6 0 0 0 -.609-.606" fill="#fff"/><path d="m9.743.908v4.149a1.524 1.524 0 0 0 1.52 1.523h4.18v10.512h-12.886v-16.184zm.293-.908h-7.772a.614.614 0 0 0 -.614.615v16.77a.614.614 0 0 0 .614.615h13.472a.614.614 0 0 0 .614-.615v-11.099a.614.614 0 0 0 -.614-.614h-4.473a.614.614 0 0 1 -.613-.615v-4.442a.614.614 0 0 0 -.614-.615" fill="url(#a)"/><path d="m16.116 5.794-5.678-5.66v4.612a1.04 1.04 0 0 0 1.035 1.048z" fill="#0078d4"/><g fill="#5ea0ef"><rect height="1.341" rx=".603" width="9.999" x="4" y="8.196"/><rect height="1.341" rx=".603" width="9.999" x="4" y="10.599"/><rect height="1.341" rx=".603" width="6.302" x="4" y="13.002"/></g></svg>

<svg xmlns="http://www.w3.org/2000/svg" width="18" height="18" viewBox="0 0 18 18"><defs><linearGradient id="e5371565-cc9b-4729-9e54-9bac135a92bd" x1="9" x2="9" y1="18" gradientUnits="userSpaceOnUse"><stop offset="0" stop-color="#0078d4"/><stop offset=".817" stop-color="#5ea0ef"/></linearGradient></defs><title>MsPortalFx.base.images-22</title><g id="abc3e3f9-d4db-41ad-8b60-378d1c3348f7"><path fill="#fff" d="M10.023.134H2.362a.605.605 0 0 0-.605.606v16.52a.605.605 0 0 0 .605.606h13.276a.605.605 0 0 0 .6-.606V6.327a.605.605 0 0 0-.6-.606h-4.406a.605.605 0 0 1-.6-.605V.74a.6.6 0 0 0-.609-.606"/><path fill="url(#e5371565-cc9b-4729-9e54-9bac135a92bd)" d="M9.743.908v4.149a1.524 1.524 0 0 0 1.52 1.523h4.18v10.512H2.557V.908zM10.036 0H2.264a.614.614 0 0 0-.614.615v16.77a.614.614 0 0 0 .614.615h13.472a.614.614 0 0 0 .614-.615V6.286a.614.614 0 0 0-.614-.614h-4.473a.614.614 0 0 1-.613-.615V.615A.614.614 0 0 0 10.036 0"/><path fill="#0078d4" d="M16.116 5.794 10.438.134v4.612a1.04 1.04 0 0 0 1.035 1.048Z"/><rect width="9.999" height="1.341" x="4" y="8.196" fill="#5ea0ef" rx=".603"/><rect width="9.999" height="1.341" x="4" y="10.599" fill="#5ea0ef" rx=".603"/><rect width="6.302" height="1.341" x="4" y="13.002" fill="#5ea0ef" rx=".603"/></g></svg>
